logos/aws-timestream.svg

<?xml version="1.0" encoding="UTF-8"?>
<svg width="256px" height="256px" viewBox="0 0 256 256" version="1.1" xmlns="http://www.w3.org/2000/svg" xmlns:xlink="http://www.w3.org/1999/xlink" preserveAspectRatio="xMidYMid">
    <title>AWS Timestream</title>
    <defs>
        <linearGradient x1="0%" y1="100%" x2="100%" y2="0%" id="linearGradient-1">
            <stop stop-color="#2E27AD" offset="0%"></stop>
            <stop stop-color="#527FFF" offset="100%"></stop>
        </linearGradient>
    </defs>
    <g>
        <rect fill="url(#linearGradient-1)" x="0" y="0" width="256" height="256"></rect>
        <path d="M194.942237,167.3376 L199.047155,163.2 L179.99881,163.2 L174.963697,158.1248 L165.439524,167.7248 L137.797199,139.8624 L142.28626,135.3376 L165.439524,158.6752 L174.963697,149.0752 L182.627481,156.8 L199.047155,156.8 L194.942237,152.6624 L199.431297,148.1376 L211.2,160 L199.431297,171.8624 L194.942237,167.3376 Z M165.439524,117.0752 L170.474636,112 L180.51629,112 L190.024589,122.6624 L185.300599,126.9376 L177.68761,118.4 L173.103308,118.4 L165.439524,126.1248 L157.775739,118.4 L140.041729,118.4 L140.041729,112 L160.404411,112 L165.439524,117.0752 Z M199.047155,115.2 L194.012043,115.2 L194.012043,108.8 L209.885664,108.8 L209.885664,124.8 L203.536215,124.8 L203.536215,119.7248 L195.326379,128 L203.536215,136.2752 L203.536215,131.2 L209.885664,131.2 L209.885664,147.2 L194.012043,147.2 L194.012043,140.8 L199.047155,140.8 L190.837318,132.5248 L182.627481,140.8 L163.579135,140.8 L158.159881,146.2624 L153.670821,141.7376 L160.950464,134.4 L179.99881,134.4 L199.047155,115.2 Z M137.797199,157.7376 L144.146648,151.3376 L148.635708,155.8624 L142.28626,162.2624 L137.797199,157.7376 Z M105.119762,44.8 C136.927325,44.8 159.090075,54.9184 159.090075,64 C159.090075,73.0816 136.927325,83.2 105.119762,83.2 C73.312199,83.2 51.1494486,73.0816 51.1494486,64 C51.1494486,54.9184 73.312199,44.8 105.119762,44.8 L105.119762,44.8 Z M136.867005,105.6 L130.517556,105.6 L130.517556,176 C130.517556,177.7664 131.936658,179.2 133.692281,179.2 L159.090075,179.2 L159.090075,192 C159.090075,201.0816 136.927325,211.2 105.119762,211.2 C74.324936,211.2 51.1494486,200.0672 51.1494486,192.848 L51.1494486,168.5568 C60.8545808,176.9088 80.855344,182.4 105.119762,182.4 C113.005777,182.4 120.666387,181.7952 127.87936,180.5984 L126.85075,174.2816 C119.974297,175.4208 112.662907,176 105.119762,176 C73.312199,176 51.1494486,165.8816 51.1494486,156.8 L51.1494486,123.7568 C60.8545808,132.1088 80.855344,137.6 105.119762,137.6 C113.005777,137.6 120.666387,136.9952 127.87936,135.7984 L126.85075,129.4816 C119.974297,130.6208 112.662907,131.2 105.119762,131.2 C73.312199,131.2 51.1494486,121.0816 51.1494486,112 L51.1494486,75.7568 C60.8545808,84.1088 80.855344,89.6 105.119762,89.6 C129.38418,89.6 149.384943,84.1088 159.090075,75.7568 L159.090075,108.8 L165.439524,108.8 L165.439524,64 C165.439524,49.4048 139.508376,38.4 105.119762,38.4 C70.7311482,38.4 44.8,49.4048 44.8,64 L44.8,192.848 C44.8,206.032 72.9883773,217.6 105.119762,217.6 C139.508376,217.6 165.439524,206.5952 165.439524,192 L165.439524,179.2 L209.885664,179.2 L209.885664,172.8 L136.867005,172.8 L136.867005,105.6 Z" fill="#FFFFFF"></path>
    </g>
</svg>

<svg width="256" height="256" xmlns="http://www.w3.org/2000/svg" preserveAspectRatio="xMidYMid">
	<defs>
		<linearGradient x1="0%" y1="100%" x2="100%" y2="0%" id="a">
			<stop stop-color="#2E27AD" offset="0%"/>
			<stop stop-color="#527FFF" offset="100%"/>
		</linearGradient>
	</defs>
	<path fill="url(#a)" d="M0 0h256v256H0z"/>
	<path d="m194.942 167.338 4.105-4.138H180l-5.035-5.075-9.524 9.6-27.643-27.863 4.49-4.524 23.153 23.337 9.524-9.6 7.663 7.725h16.42l-4.105-4.138 4.49-4.524L211.2 160l-11.769 11.862-4.489-4.524Zm-29.502-50.263 5.035-5.075h10.041l9.509 10.662-4.724 4.276-7.613-8.538h-4.585l-7.663 7.725-7.664-7.725h-17.734V112h20.362l5.036 5.075Zm33.607-1.875h-5.035v-6.4h15.874v16h-6.35v-5.075l-8.21 8.275 8.21 8.275V131.2h6.35v16h-15.874v-6.4h5.035l-8.21-8.275-8.21 8.275H163.58l-5.42 5.462-4.488-4.524 7.28-7.338h19.048l19.048-19.2Zm-61.25 42.538 6.35-6.4 4.489 4.524-6.35 6.4-4.489-4.524ZM105.12 44.8c31.807 0 53.97 10.118 53.97 19.2 0 9.082-22.163 19.2-53.97 19.2-31.808 0-53.97-10.118-53.97-19.2 0-9.082 22.162-19.2 53.97-19.2Zm31.747 60.8h-6.35V176c0 1.766 1.42 3.2 3.175 3.2h25.398V192c0 9.082-22.163 19.2-53.97 19.2-30.795 0-53.97-11.133-53.97-18.352v-24.291c9.705 8.352 29.705 13.843 53.97 13.843 7.886 0 15.546-.605 22.76-1.802l-1.03-6.316c-6.876 1.139-14.187 1.718-21.73 1.718-31.808 0-53.97-10.118-53.97-19.2v-33.043c9.705 8.352 29.705 13.843 53.97 13.843 7.886 0 15.546-.605 22.76-1.802l-1.03-6.316c-6.876 1.139-14.187 1.718-21.73 1.718-31.808 0-53.97-10.118-53.97-19.2V75.757C60.854 84.109 80.854 89.6 105.12 89.6c24.264 0 44.265-5.491 53.97-13.843V108.8h6.35V64c0-14.595-25.932-25.6-60.32-25.6C70.73 38.4 44.8 49.405 44.8 64v128.848c0 13.184 28.188 24.752 60.32 24.752 34.388 0 60.32-11.005 60.32-25.6v-12.8h44.446v-6.4h-73.019v-67.2Z" fill="#FFF"/>
</svg>
